X:2371
T:Ben Rein y Voaldyn 
C:Traditional
O:Isle of Man
Z:Kiaull Vannin 371 
M:6/8 
K:G 
D|D2G G2A|B2A Bcd|g2d d2c|BGG G2D|D2G G2A|B2A Bcd|g2d d2c|BGG G2z| 
B2B Bcd|A2A ABc|B2B Bcd|A3 d3|B2B Bcd|A2A A2c|BAG A2F|G3 G3| 
GBd g2d|e2d B2A|GBd g2d|e3 d3|GBd g2d|edc BAG|Bde d2G|A3 G3|| 

